X: 24260
T: Lord Seaforth
R: strathspey
M: 4/4
K: Gmajor
BGAG BGAB|cABG E/E/E EA|GEDE G2ge|1 dBAc BGGA:|2 dBAc BGBd||
g2dg egdB|cABG E2 ef|g2 dg egdB|cedB GABd|
gdBg dBgB|cABc AE~E2|GEDB, G,2ge|dBAc BGGA||

